icons/HSB-Collections/64x64/apps/half-life2.svg

<svg xmlns="http://www.w3.org/2000/svg" width="64" height="64" version="1">
 <path style="opacity:0.2" d="m 4.0507997,32.000415 c -0.012,0.333995 -0.050799,0.66199 -0.050799,0.999985 C 4.0000004,48.43218 16.568421,61 31.9996,61 47.431379,61 59.9992,48.43218 59.9992,33.0004 c 0,-0.337995 -0.038,-0.66599 -0.05,-0.999985 -0.533992,14.967786 -12.855816,26.999614 -27.9496,26.999614 -15.093984,0 -27.4156079,-12.031828 -27.9496003,-26.999614 z"/>
 <path style="fill:#f37b21" d="m 31.9996,4.0008294 c -15.431779,0 -27.9995996,12.5684206 -27.9995996,27.9995996 0,15.431779 12.5684206,27.9996 27.9995996,27.9996 15.431779,0 27.9996,-12.567821 27.9996,-27.9996 0,-15.431179 -12.567821,-27.9995996 -27.9996,-27.9995996 z"/>
 <path style="opacity:0.2" d="M 32,13 A 19.999714,19.999714 0 0 0 12,33 19.999714,19.999714 0 0 0 32,53 19.999714,19.999714 0 0 0 52,33 19.999714,19.999714 0 0 0 32,13 Z m -8,6 2.763672,0 3.476562,0 0.404297,0 8.935547,21.810547 4.671875,-1.876953 1.490235,3.71289 L 37.390625,46 l 0,-0.002 L 37.384766,46 31.546875,31.767578 21.335938,47 18,44.992188 29.712891,27.292969 27.951172,23 24,23 24,19 Z"/>
 <path style="fill:#ffffff" d="M 32 12 A 19.999714 19.999714 0 0 0 12 32 A 19.999714 19.999714 0 0 0 32 52 A 19.999714 19.999714 0 0 0 52 32 A 19.999714 19.999714 0 0 0 32 12 z M 24 18 L 26.763672 18 L 30.240234 18 L 30.644531 18 L 39.580078 39.810547 L 44.251953 37.933594 L 45.742188 41.646484 L 37.390625 45 L 37.390625 44.998047 L 37.384766 45 L 31.546875 30.767578 L 21.335938 46 L 18 43.992188 L 29.712891 26.292969 L 27.951172 22 L 24 22 L 24 18 z"/>
 <path style="opacity:0.2;fill:#ffffff" d="m 31.9996,4.0008294 c -15.431779,0 -27.9995996,12.5684206 -27.9995996,27.9995996 0,0.337995 0.038799,0.66599 0.050799,0.999986 C 4.5835921,18.033629 16.905216,6.0008008 32.0004,6.0008008 47.094184,6.0008008 59.416008,18.033429 59.95,33.000415 59.962,32.666419 60,32.338424 60,32.000429 60,16.56925 47.432179,4.0008294 32.0004,4.0008294 Z"/>
 <circle style="opacity:0.2" cx="47" cy="48" r="15"/>
 <circle style="fill:#42a1cd" cx="47" cy="47" r="15"/>
 <path style="fill:#ffffff;fill-rule:evenodd" d="m 47,40 c 0,0 -0.944996,-0.01925 -1.929688,0.498047 -0.948298,0.49778 -1.980944,1.743627 -2.05664,3.501953 l 2.677734,0 C 45.820332,42.814884 47,42.800781 47,42.800781 c 0,0 1.333984,-0.0016 1.333984,1.398438 0,0.738913 -0.187436,1.152522 -0.542968,1.61914 -0.355534,0.466757 -0.923177,0.935943 -1.589844,1.460938 C 45.534507,47.804294 44.769465,48.384596 44.125,49.230469 43.480533,50.076204 43,51.238539 43,52.599609 L 43,54 l 8,0 0,-3 -4.865234,0 c 0.04173,-0.0616 0.02622,0.04347 0.07422,-0.01953 0.355533,-0.466757 0.923178,-0.933988 1.589844,-1.458985 0.666663,-0.524998 1.431704,-1.107252 2.07617,-1.953126 C 50.519465,46.722624 51,45.560289 51,44.199219 51,42.332611 49.914366,41.014924 48.929688,40.498047 47.944984,39.981031 47,40 47,40 Z"/>
</svg>

<svg xmlns="http://www.w3.org/2000/svg" width="64" height="64" version="1.1">
 <circle style="opacity:0.2" cx="32" cy="33" r="28"/>
 <circle style="fill:#f37b21" cx="32" cy="32" r="28"/>
 <path style="fill:#ffffff;opacity:0.2" d="M 32,4 A 28,28 0 0 0 4,32 28,28 0 0 0 4.0352,32.5 28,28 0 0 1 32,5 28,28 0 0 1 59.982,32.252 28,28 0 0 0 60,32 28,28 0 0 0 32,4 Z"/>
 <path style="opacity:0.2" d="m32 11a22 22 0 0 0-22 22 22 22 0 0 0 22 22 22 22 0 0 0 22-22 22 22 0 0 0-22-22zm-8 8h6.641l8.939 21.811 4.67-1.881 1.49 3.72-8.349 3.35h-0.01l-5.83-14.23-10.211 15.23-3.34-2.01 11.711-17.701-1.762-4.289h-3.949z"/>
 <path style="fill:#ffffff" d="m32 10a22 22 0 0 0-22 22 22 22 0 0 0 22 22 22 22 0 0 0 22-22 22 22 0 0 0-22-22zm-8 8h6.641l8.939 21.811 4.67-1.881 1.49 3.72-8.349 3.35h-0.01l-5.83-14.23-10.211 15.23-3.34-2.01 11.711-17.701-1.762-4.289h-3.949v-4z"/>
 <circle style="opacity:0.2" cx="47" cy="48" r="15"/>
 <circle style="fill:#42a1cd" cx="47" cy="47" r="15"/>
 <path style="fill:#ffffff" d="M 46.13,51 C 46.49,50.53 47.12,50.05 47.79,49.52 48.46,49 49.22,48.41 49.87,47.57 50.51,46.72 50.99,45.56 50.99,44.2 50.99,42.33 49.9,41.02 48.92,40.5 47.94,39.98 46.99,40 46.99,40 H 47 C 47,40 46.06,39.98 45.07,40.5 44.12,41 43.09,42.24 43.01,44 H 45.69 C 45.82,42.81 47,42.8 47,42.8 47,42.8 48.33,42.8 48.33,44.2 48.33,44.94 48.14,45.35 47.79,45.82 47.43,46.29 46.87,46.76 46.2,47.28 45.53,47.8 44.77,48.39 44.12,49.23 43.48,50.08 43,51.24 43,52.6 V 54 H 51 V 51"/>
</svg>
